X: 52
T: Fang yang
%%abc-version 2.0
%%abcx-abcm2ps-target-version 5.9.1 (29 Sep 2008)
%%abc-creator hum2abc beta
%%abcx-conversion-date 2013/10/02 07:52:29
%%abc-edited-by Helmut Schaffrath
%%humdrum-veritas 2327848580
%%humdrum-veritas-data 3031743145
%%continueall 1
%%barnumbers 0
L: 1/16
M: 1/4
K: G
A2 A2 B A B d [I:setbarnb 1]| 
d B A BA4 | 
B2 B d e f e d | 
B2 A E2< G2 A | 
B2 B A | 
[M:2/4]d8 | 
B2 B d e f e d | 
B2 A E2< G2 A | 
B B A G F E2 B, | 
D8 | 
B2 B d e f e d | 
B2 A E2< G2 A | 
B B A G F E2 A, | 
D8 |]  



